X:6
R:Polska
Z:Nils L, 2007-12-14
O:efter Byss-Kalle, Uppland
M:3/4
L:1/16
K:G
D2 | G2>B2 B2G2 G2AB | (cB)AB c2A2 (BA)Bc | d2>B2 B2G2 G2AB | c2Ac A2FA F2D2 | 
     G2B2 B2G2 G2AB  | (cB)AB c2A2 (BA)Bc | d2>B2 G2e2 c2A2 | (GF)EF A4 G4  :|

